X: 699
T: Nanjing dao beijing
%%abc-version 2.0
%%abcx-abcm2ps-target-version 5.9.1 (29 Sep 2008)
%%abc-creator hum2abc beta
%%abcx-conversion-date 2013/10/02 07:52:30
%%abc-edited-by Helmut Schaffrath
%%humdrum-veritas 2622408094
%%humdrum-veritas-data 925858611
%%continueall 1
%%barnumbers 0
L: 1/8
M: 2/4
K: Bb
b c' f' d' [I:setbarnb 1]| 
c'4 | 
f' c' b g | 
f4 | 
bb2d | 
d' c'd'2 | 
f' d'/ c'/ b g/ b/ | 
c'4 | 
c'> b c' f' | 
b a/ g/f2 | 
b g/ f/ d c/ d/ | 
f4 | 
c' d' b g | 
f'4 | 
b g/ f/ d c/ d/ | 
f4 |]  



